modules/micon/icons/LeftQuote.svg

<svg xmlns="http://www.w3.org/2000/svg" viewBox="0 0 166 1024"><path d="M166 33v171.5q0 25.5-3.5 52.5t-11.5 52.25-20.75 47.75-30.75 39.25-42.25 26.5-54.75 9.75v-78.5q18.5 0 32.25-7.25t23.25-19 15.25-27.25 9-32 4.5-33.25 1.25-30.75h-88v-171.5h166z"/></svg>

<svg xmlns="http://www.w3.org/2000/svg" viewBox="0 0 166 1024"><path d="M166 33v171.5q0 25.5-3.5 52.5T151 309.25 130.25 357 99.5 396.25t-42.25 26.5T2.5 432.5V354q18.5 0 32.25-7.25t23.25-19 15.25-27.25 9-32 4.5-33.25T88 204.5H0V33h166z"/></svg>
